X:1
T:Zwölf Gesänge
T:Der Sänger geht
T:2. Der Sänger geht
T:Louise Reichardt
T:Novalis (Georg Friedrich Freiherr von Hardenberg)
T:Zwölf Gesänge
T:OpenScore (CC0)
T:OpenScore (CC0)
C:Louise Reichardt
Z:Novalis (Georg Friedrich Freiherr von Hardenberg)
Z:OpenScore (CC0)
%%score 1 { ( 2 5 6 ) | ( 3 4 ) }
L:1/8
Q:1/4=80
M:4/4
K:E
V:1 treble nm="Voice"
V:2 treble nm="Piano"
V:5 treble 
V:6 treble 
V:3 bass 
V:4 bass 
V:1
"^Langsam und getragen" z4 |:S[Q:1/4=80] z4 | z4 z2 B2 | B3 G B A G F | F2 E2 z E D E | %5
w: ||1.~Der|Sän- ger geht auf rau- hen|Pfa- den, zer- reisst in|
 F2 B,2 E2 G2 | F4 z2 B2 | B3 G B A G F | F2 E E c3 B | B2 G2 F2 A2 | G2 z2 z4 | z8 | %12
w: Dor- nen sein Ge-|wand; er|muss durch Fluss und Süm- pfe|ba- den und keins reicht|hülf- reich ihm die|Hand,||
 B2 B B A =G F E | ED D2 z B =c B | B3/2 B/ A/=G/ F/E/ B3 B | (ef/^g/f/e/d/) c/ B B c d | %16
w: Ein- sam und pfad- los fliesst in|Kla- * gen jetzt ü- ber|sein er- mat- * tet * Herz, er|kann * * * * * die Lau- te kaum noch|
 (e>G) G2 F2 c B | B3 G (B2 A) F | E4!D.S.! :| !fermata!z4 |] %20
w: tra- * gen, ihn ü- ber-|mannt ein tie- * fer|Schmerz.||
V:2
 [EG]4 |: A>B [EGB]/e/^d/e/ | f2- f/e/d/c/ (!wedge!B!wedge!B!wedge![FAB]!wedge!B) | %3
 [EG]2 [EG]2 [DF]2 [DF]2 | E2 E2 E2 E2 | [DF]2 [DF]2 E2 [EG]2 | %6
 [DF]2 (!wedge!B2 !wedge!B2 !wedge!B2) | [EG]2 [EG]2 [DF]2 [DF]2 | E2 E2 E2 E2 | %9
 [EG]2 [EG]2 [DF]2 [DFA]2 | [EG]4 [DFA]>B [EGB]/e/^d/e/ | %11
 f2- f/e/d/c/ (!wedge!B!wedge!B!wedge![FAB]!wedge!B) | [E=GB]2 [EGB]2 [EGB]2 [EGB]2 | %13
 [DFAB]2 [DFAB]2 [DFAB]2 [DFAB]2 | [E=GB]2 [EGB]2 [DFB]2 [B,DFA]2 | %15
 [E^GB]2 [DFAB]2 [DFAB]2 [DFAB]2 | [EGB]2 [EGB]2 [CFA]2 [CFA]2 | [EG]2 [EG]2 [DF]2 [DF]2 | [EG]4 :| %19
"^Schluss." !fermata!E4 |] %20
V:3
 E,2 E,2 |: E,2 E,2 | [B,,D,]2 [B,,D,F,]2 [B,,D,F,]2 [B,,D,F,]2 | %3
 [E,,E,]2 [E,,E,]2 [B,,,B,,]2 [B,,,B,,]2 | [E,,E,]2 [E,,E,]2 [E,,E,]2 [E,,E,]2 | %5
 [B,,,B,,]2 [B,,,B,,]2 [E,,E,]2 [E,,E,]2 | [B,,,B,,]4 z4 | %7
 [E,,E,]2 [E,,E,]2 [B,,,B,,]2 [B,,,B,,]2 | [E,,E,]2 [E,,E,]2 [A,,,A,,]2 [A,,,A,,]2 | %9
 [B,,,B,,]2 [B,,,B,,]2 [B,,,B,,]2 [B,,,B,,]2 | E,2 E,2 E,2 E,2 | %11
 [B,,D,]2 [B,,D,F,]2 [B,,D,F,]2 [B,,D,F,]2 | E,2 E,2 E,2 E,2 | B,,2 B,,2 B,,2 B,,2 | %14
 E,2 E,2 [B,,,B,,]2 [B,,,B,,]2 | E,2 [E,B,]2 [E,B,]2 [E,B,]2 | [E,B,]2 [E,B,]2 [A,,A,]2 [A,,A,]2 | %17
 B,,2 B,,2 B,,2 B,,2 | E,2 E,2 :| [E,,E,]4 |] %20
V:4
 B,4 |: x4 | x8 | B,2 B,2 [A,B,]2 [A,B,]2 | [G,B,]2 [G,B,]2 [G,B,]2 [G,B,]2 | %5
 [A,B,]2 [A,B,]2 [G,B,]2 B,2 | B,2 x2 x4 | B,2 B,2 [A,B,]2 [A,B,]2 | %8
 [G,B,]2 [G,B,]2 [A,C]2 [A,C]2 | B,2 B,2 B,2 B,2 | B,4 x4 | x8 | x8 | x8 | x8 | x8 | x8 | %17
 B,2 B,2 [A,B,]2 [A,B,]2 | [G,B,]4 :| [G,B,]4 |] %20
V:5
 x4 |: [DF]2 x2 | B2 x2 x4 | x8 | x8 | x8 | x8 | x8 | x8 | x8 | x8 | B2 x2 x4 | x8 | x8 | x8 | x8 | %16
 x8 | x8 | x4 :| x4 |] %20
V:6
 x4 |: x4 | A2 x2 x4 | x8 | x8 | x8 | x8 | x8 | x8 | x8 | x8 | A2 x2 x4 | x8 | x8 | x8 | x8 | x8 | %17
 x8 | x4 :| x4 |] %20

